!!!COM: Music21
!!!OTL: Pasacorredoiras
!!!OMV: pezas_pasacorredoiras_pasacorredoiras-2_pasacorredoiras-partitura.musicxml
**kern
*I"Bagpipes
*I'Bag
*clefG^2
*k[]
*M2/4
=1
!LO:TX:a:t=Allegretto
*MM120
!LO:TX:a:t=[quarter]=120
4r
8.ggL
16eeJk
=||
8.aaL
16eeJk
16ggLL
16ff
16ee
16ddJJ
=
8eeL
8ccJ
8.ffL
16ddJk
=
8.eeL
16ccJk
16bLL
16cc
16dd
16eeJJ
=
16ffLL
16ee
16dd
16ccJJ
8.ggL
16eeJk
=
8.aaL
16eeJk
16ggLL
16ff
16ee
16ddJJ
=
8eeL
8ccJ
8.ffL
16ddJk
!!linebreak:original
=
8.eeL
16ccJk
16ddLL
16cc
16dd
16eeJJ
=
4cc
8.ggL
16eeJk
=||
8.aaL
16eeJk
16ggLL
16ff
16ee
16ddJJ
=
8eeL
8ccJ
8.ffL
16ddJk
=
8.eeL
16ccJk
16bLL
16cc
16dd
16eeJJ
=
16ffLL
16ee
16dd
16ccJJ
8.ggL
16eeJk
=
8.aaL
16eeJk
16ggLL
16ff
16ee
16ddJJ
!!linebreak:original
=
8eeL
8ccJ
8.ffL
16ddJk
=
4ee
16ccLL
16ee
16dd
16bJJ
=||
16ccLL
16ee
16dd
16bJJ
16bLL
16dd
16cc
16bJJ
=
8ddL
8ccJ
16ccLL
16dd
16ee
16ffJJ
=
16aaLL
16gg
16ee
16ccJJ
16ggLL
16ff
16dd
16bJJ
!!linebreak:original
=
8.ddL
16ccJk
16eeLL
16aa
16gg
16eeJJ
=
16eeLL
16gg
16ff
16ddJJ
16eeLL
16ff
16dd
16bJJ
=
8ddL
8ccJ
16ccLL
16dd
16ee
16ffJJ
=
16aaLL
16gg
16ee
16ccJJ
16ggLL
16ff
16dd
16bJJ
=
2cc
==
*-
